swiss/communes/0091.svg

<?xml version="1.0" encoding="UTF-8" standalone="no"?>
<!-- Created with Inkscape (http://www.inkscape.org/) -->
<svg
   xmlns:svg="http://www.w3.org/2000/svg"
   xmlns="http://www.w3.org/2000/svg"
   version="1.0"
   width="217.58257"
   height="254.86401"
   id="svg2780">
  <defs
     id="defs2782" />
  <g
     transform="translate(-16.716535,-801.80039)"
     id="layer1">
    <path
       d="M 17.716535,802.80039 L 21.636214,967.45602 C 24.435977,1085.0672 226.57965,1085.0672 229.37942,967.45602 L 233.2991,802.80039 L 17.716535,802.80039 z"
       id="path3282"
       style="fill:#db4329;fill-opacity:1;fill-rule:evenodd;stroke:#000000;stroke-width:2;stroke-linecap:butt;stroke-miterlimit:4;stroke-dashoffset:0;stroke-opacity:1" />
    <path
       d="M 53.149606,843.52752 C 132.52859,820.2371 159.23958,868.68381 166.11169,878.15339 C 169.40993,882.69827 164.94539,888.00834 171.44906,894.7586 C 178.57602,902.15579 166.88642,913.30492 158.7007,922.49341 C 155.75451,925.80051 155.71007,929.33268 160.73796,930.65983 C 164.02625,931.52781 169.03658,932.27725 169.13182,937.15426 C 169.21988,941.78856 163.22218,946.06297 170.47494,949.10386 C 167.40984,950.23578 163.86524,954.34399 166.29634,956.03672 C 168.48101,957.55785 170.63617,960.65765 168.87691,962.6427 C 165.75063,966.17022 164.28668,970.60154 167.21615,973.41337 C 136.74483,1016.9291 97.850015,1024.7381 55.30984,1008.2888 C 144.2526,1065.4881 219.36663,999.21258 220.26515,923.47716 C 221.15858,848.17059 140.58669,788.3137 53.149606,843.52752 z"
       id="path2561"
       style="fill:#ffffff;fill-opacity:1;fill-rule:evenodd;stroke:#000000;stroke-width:0.99921262;stroke-linecap:butt;stroke-linejoin:round;stroke-miterlimit:4;stroke-dasharray:none;stroke-opacity:1" />
    <path
       d="M 195.36514,899.27225 C 189.91313,887.08849 181.18115,882.54892 172.92183,887.53823"
       id="path2392"
       style="fill:none;fill-opacity:0.75;fill-rule:evenodd;stroke:#000000;stroke-width:0.99921256;stroke-linecap:round;stroke-linejoin:miter;stroke-miterlimit:4;stroke-dasharray:none;stroke-opacity:1" />
    <path
       d="M 182.04373,911.32965 C 184.32017,909.38878 190.4978,909.91519 192.33497,908.78745 C 190.0052,905.38517 184.84353,900.76534 179.11699,900.77257 C 180.46896,899.45882 181.8055,898.09876 183.38535,897.46863"
       id="path2394"
       style="fill:none;fill-opacity:0.75;fill-rule:evenodd;stroke:#000000;stroke-width:0.99921256;stroke-linecap:round;stroke-linejoin:round;stroke-miterlimit:4;stroke-dasharray:none;stroke-opacity:1" />
    <path
       d="M 176.84805,922.26026 C 185.01807,941.34024 168.54256,927.30083 163.24638,928.34644"
       id="path2396"
       style="fill:none;fill-opacity:0.75;fill-rule:evenodd;stroke:#000000;stroke-width:0.99999994px;stroke-linecap:round;stroke-linejoin:miter;stroke-opacity:1" />
    <path
       d="M 170.01008,943.91918 C 172.14964,946.06297 176.64863,948.22331 179.85728,950.45226 C 177.87235,954.53627 169.88022,955.234 166.00256,953.24946"
       id="path2398"
       style="fill:none;fill-opacity:0.75;fill-rule:evenodd;stroke:#000000;stroke-width:0.99921262;stroke-linecap:round;stroke-linejoin:miter;stroke-miterlimit:4;stroke-dasharray:none;stroke-opacity:1" />
    <path
       d="M 181.0966,953.43146 C 181.15594,952.81403 180.86006,951.48898 179.85728,950.45226 C 175.80564,950.62467 170.71069,949.44706 170.47494,949.10386"
       id="path2400"
       style="opacity:1;color:#000000;fill:none;fill-opacity:0.75;fill-rule:evenodd;stroke:#000000;stroke-width:0.99999994px;stroke-linecap:round;stroke-linejoin:miter;marker:none;marker-start:none;marker-mid:none;marker-end:none;stroke-miterlimit:4;stroke-dasharray:none;stroke-dashoffset:0;stroke-opacity:1;visibility:visible;display:inline;overflow:visible;enable-background:accumulate" />
    <path
       d="M 104.74279,48.125477 C 104.74279,48.954068 102.75024,49.534274 100.90065,49.534274 C 99.051068,49.534274 96.898503,48.954693 96.898503,48.126102 C 96.898503,47.29751 99.473206,44.663533 100.46366,45.171456 C 101.99046,45.95443 104.74279,47.296885 104.74279,48.125477 z"
       transform="matrix(0.3851156,1.0030687,-1.0956241,0.3906172,196.97211,785.44152)"
       id="path2402"
       style="color:#000000;fill:#000000;fill-opacity:1;fill-rule:evenodd;stroke:none;stroke-width:0.89463511pt;stroke-linecap:butt;stroke-linejoin:round;marker:none;marker-start:none;marker-mid:none;marker-end:none;stroke-miterlimit:4;stroke-dashoffset:0;stroke-opacity:1;visibility:visible;display:inline;overflow:visible;enable-background:accumulate" />
    <path
       d="M 177.74852,894.17223 C 179.27194,895.79242 188.20883,897.30603 192.86397,908.61112"
       id="path3870"
       style="opacity:1;color:#000000;fill:none;fill-opacity:0.75;fill-rule:evenodd;stroke:#000000;stroke-width:0.99921256;stroke-linecap:round;stroke-linejoin:miter;marker:none;marker-start:none;marker-mid:none;marker-end:none;stroke-miterlimit:4;stroke-dasharray:none;stroke-dashoffset:0;stroke-opacity:1;visibility:visible;display:inline;overflow:visible;enable-background:accumulate" />
    <path
       d="M 85.345224,174.68797 L 77.857725,142.09217 L 49.514552,159.84642 L 67.268804,131.50325 L 34.673,124.01575 L 67.268803,116.52825 L 49.51455,88.185076 L 77.857724,105.93933 L 85.345221,73.343525 L 92.83272,105.93933 L 121.17589,88.185074 L 103.42164,116.52825 L 136.01744,124.01575 L 103.42164,131.50324 L 121.1759,159.84642 L 92.832721,142.09217 L 85.345224,174.68797 z"
       transform="matrix(1.0543551,0,0,1.0543551,-4.6389437,795.24474)"
       id="path4767"
       style="fill:#ffffff;fill-opacity:1;fill-rule:evenodd;stroke:#000000;stroke-width:0.94770026;stroke-linecap:butt;stroke-linejoin:miter;stroke-miterlimit:4;stroke-dasharray:none;stroke-opacity:1" />
  </g>
</svg>

<svg xmlns="http://www.w3.org/2000/svg" version="1.0" width="217.583" height="254.864"><path d="m17.717 802.8 3.92 164.656c2.799 117.611 204.943 117.611 207.742 0L233.3 802.8H17.717z" style="fill:#db4329;fill-opacity:1;fill-rule:evenodd;stroke:#000;stroke-width:2;stroke-linecap:butt;stroke-miterlimit:4;stroke-dashoffset:0;stroke-opacity:1" transform="translate(-16.717 -801.8)"/><path d="M53.15 843.528c79.379-23.29 106.09 25.156 112.962 34.625 3.298 4.545-1.167 9.855 5.337 16.606 7.127 7.397-4.563 18.546-12.748 27.734-2.946 3.308-2.99 6.84 2.037 8.167 3.288.868 8.299 1.617 8.394 6.494.088 4.635-5.91 8.909 1.343 11.95-3.065 1.132-6.61 5.24-4.179 6.933 2.185 1.52 4.34 4.62 2.58 6.606-3.125 3.527-4.59 7.959-1.66 10.77-30.471 43.516-69.366 51.325-111.906 34.876 88.943 57.2 164.057-9.076 164.955-84.812.894-75.306-79.678-135.163-167.115-79.95z" style="fill:#fff;fill-opacity:1;fill-rule:evenodd;stroke:#000;stroke-width:.99921262;stroke-linecap:butt;stroke-linejoin:round;stroke-miterlimit:4;stroke-dasharray:none;stroke-opacity:1" transform="translate(-16.717 -801.8)"/><path d="M195.365 899.272c-5.452-12.184-14.184-16.723-22.443-11.734" style="fill:none;fill-opacity:.75;fill-rule:evenodd;stroke:#000;stroke-width:.99921256;stroke-linecap:round;stroke-linejoin:miter;stroke-miterlimit:4;stroke-dasharray:none;stroke-opacity:1" transform="translate(-16.717 -801.8)"/><path d="M182.044 911.33c2.276-1.941 8.454-1.415 10.291-2.543-2.33-3.402-7.491-8.022-13.218-8.014 1.352-1.314 2.689-2.674 4.268-3.304" style="fill:none;fill-opacity:.75;fill-rule:evenodd;stroke:#000;stroke-width:.99921256;stroke-linecap:round;stroke-linejoin:round;stroke-miterlimit:4;stroke-dasharray:none;stroke-opacity:1" transform="translate(-16.717 -801.8)"/><path d="M176.848 922.26c8.17 19.08-8.305 5.04-13.602 6.086" style="fill:none;fill-opacity:.75;fill-rule:evenodd;stroke:#000;stroke-width:.99999994px;stroke-linecap:round;stroke-linejoin:miter;stroke-opacity:1" transform="translate(-16.717 -801.8)"/><path d="M170.01 943.92c2.14 2.143 6.639 4.303 9.847 6.532-1.985 4.084-9.977 4.782-13.854 2.797" style="fill:none;fill-opacity:.75;fill-rule:evenodd;stroke:#000;stroke-width:.99921262;stroke-linecap:round;stroke-linejoin:miter;stroke-miterlimit:4;stroke-dasharray:none;stroke-opacity:1" transform="translate(-16.717 -801.8)"/><path d="M181.097 953.431c.059-.617-.237-1.942-1.24-2.979-4.051.173-9.146-1.005-9.382-1.348" style="opacity:1;color:#000;fill:none;fill-opacity:.75;fill-rule:evenodd;stroke:#000;stroke-width:.99999994px;stroke-linecap:round;stroke-linejoin:miter;marker:none;marker-start:none;marker-mid:none;marker-end:none;stroke-miterlimit:4;stroke-dasharray:none;stroke-dashoffset:0;stroke-opacity:1;visibility:visible;display:inline;overflow:visible;enable-background:accumulate" transform="translate(-16.717 -801.8)"/><path d="M104.743 48.125c0 .83-1.993 1.41-3.842 1.41-1.85 0-4.002-.58-4.002-1.409 0-.828 2.574-3.462 3.565-2.955 1.526.783 4.279 2.126 4.279 2.954z" transform="matrix(.38512 1.00307 -1.09562 .39062 180.256 -16.359)" style="color:#000;fill:#000;fill-opacity:1;fill-rule:evenodd;stroke:none;stroke-width:.89463511pt;stroke-linecap:butt;stroke-linejoin:round;marker:none;marker-start:none;marker-mid:none;marker-end:none;stroke-miterlimit:4;stroke-dashoffset:0;stroke-opacity:1;visibility:visible;display:inline;overflow:visible;enable-background:accumulate"/><path d="M177.749 894.172c1.523 1.62 10.46 3.134 15.115 14.44" style="opacity:1;color:#000;fill:none;fill-opacity:.75;fill-rule:evenodd;stroke:#000;stroke-width:.99921256;stroke-linecap:round;stroke-linejoin:miter;marker:none;marker-start:none;marker-mid:none;marker-end:none;stroke-miterlimit:4;stroke-dasharray:none;stroke-dashoffset:0;stroke-opacity:1;visibility:visible;display:inline;overflow:visible;enable-background:accumulate" transform="translate(-16.717 -801.8)"/><path d="m85.345 174.688-7.487-32.596-28.343 17.754 17.754-28.343-32.596-7.487 32.596-7.488-17.754-28.343 28.343 17.754 7.487-32.595 7.488 32.595 28.343-17.754-17.754 28.343 32.595 7.488-32.595 7.487 17.754 28.343-28.343-17.754-7.488 32.596z" transform="matrix(1.05436 0 0 1.05436 -21.355 -6.556)" style="fill:#fff;fill-opacity:1;fill-rule:evenodd;stroke:#000;stroke-width:.94770026;stroke-linecap:butt;stroke-linejoin:miter;stroke-miterlimit:4;stroke-dasharray:none;stroke-opacity:1"/></svg>
